!!!CDT:
!!!PTL: Il secondo libro de madrigali a quattro voci
!!!PPP: Venice
!!!PPR: Angelo Gardano
!!!PDT: 1586
!!!PUB-format:
!!!RISM: D 3655
!!!rime: 143
!!!AGN: Madrigal
!!!SCT: Trm0143a
!!!SCA: Trm0143a
!!!original-voices: 4
!!!extant-voices: 4
!!!complete: Y
!!!final: C
!!!COM: Dueto, Antonio
!!!OTL: Ecco mormorar l'onde
**kern	**text	**kern	**text	**kern	**text	**kern	**text
*part4	*part4	*part3	*part3	*part2	*part2	*part1	*part1
*staff4	*staff4	*staff3	*staff3	*staff2	*staff2	*staff1	*staff1
*I"Basso	*	*I"Tenore	*	*I"Alto	*	*I"Canto	*
*I'B	*	*I'T	*	*I'A	*	*I'C	*
*oclefF3	*	*oclefC3	*	*oclefC2	*	*oclefG2	*
*clefF4	*	*clefGv2	*	*clefG2	*	*clefG2	*
*k[b-]	*	*k[b-]	*	*k[b-]	*	*k[b-]	*
*omet(C)	*	*omet(C)	*	*omet(C)	*	*omet(C)	*
*M4/2	*	*M4/2	*	*M4/2	*	*M4/2	*
!!LO:TX:a:t=[Prima parte.]
1r	.	2r	.	2.g	Ec-	1r	.
.	.	2.g	Ec-	.	.	.	.
.	.	.	.	4f	-co	.	.
2.c	Ec-	.	.	4e	mor-	2r	.
.	.	4f	-co	4d	-mo-	.	.
.	.	4e	mor-	2c	-rar,	[2cc	Ec-
4B-y	-co	4d	-mo-	.	.	.	.
=1	=1	=1	=1	=1	=1	=1	=1
4A	mor-	2c	-rar,	2.cc	<Ec-	4cc]	.
4G	-mo-	.	.	.	.	4b-y	-co
2F	-rar,	2.c	<Ec-	.	.	4a	mor-
.	.	.	.	4b-y	-co	4g	-mo-
2.F	<Ec-	.	.	4a	mor-	2f	-rar,
.	.	4B-y	-co	4g	-mo-	.	.
.	.	4A	mor-	2f	-rar,>	4cc	mor-
4E	-co	4G	-mo-	.	.	4cc	-mo-
=2	=2	=2	=2	=2	=2	=2	=2
4D	mor-	2F	-rar,>	4f	<Ec-	1dd	-rar,
4C	-mo-	.	.	4e	-co	.	.
1BB-y	-rar,>	4f	<Ec-	4d	mor-	.	.
.	.	4e	-co	4c	-mo-	.	.
.	.	4d	mor-	4B-y	-rar>	4ff	Ec-
.	.	4c	-mo-	4c	l'on-	4ee	-co
4B-y	<Ec-	[2B-y	-rar>	8dL	.	4dd	mor-
.	.	.	.	8eJ	.	.	.
4A	-co	.	.	[4f	.	4cc	-mo-
=3	=3	=3	=3	=3	=3	=3	=3
4G	mor-	2B-]	.	4f]	.	2.b-y	-rar
4G	-mo-	.	.	4e	.	.	.
4F	-rar>	4.c	l'on-	4.f	.	.	.
4.F	l'on-	.	.	.	.	4.a	l'on-
.	.	8B-y	.	8e	.	.	.
.	.	2.A	.	4d	.	.	.
8EL	.	.	.	.	.	8gL	.
8D	.	.	.	2c	.	8f	.
8CJ	.	.	.	.	.	8eJ	.
2D	.	.	.	.	.	[2f	.
.	.	8GL	.	4B-y	.	.	.
.	.	8FJ	.	.	.	.	.
=4	=4	=4	=4	=4	=4	=4	=4
1C	-de,	1G	.	2c	-de,	4f]	.
.	.	.	.	.	.	8eL	.
.	.	.	.	.	.	8dJ	.
.	.	.	.	4r	.	2e	.
.	.	.	.	4c	E	.	.
4r	.	2F	-de,	4.c	tre-	4f	-de,
4F	E	.	.	.	.	4a	E
.	.	.	.	8c	-mo-	.	.
4.F	tre-	4r	.	4A	-lar,	4.a	tre-
.	.	4f	E	4a	<E	.	.
8F	-mo-	.	.	.	.	8a	-mo-
=5	=5	=5	=5	=5	=5	=5	=5
2D	-lar,	4.f	tre-	4.a	tre-	4f	-lar,
.	.	.	.	.	.	4ff	<E
.	.	8f	-mo-	8a	-mo-	.	.
4r	.	2d	-lar	2.f	-lar,>	4.ff	tre-
4B-y	<E	.	.	.	.	.	.
.	.	.	.	.	.	8ff	-mo-
4.B-y	tre-	2d	le	.	.	4dd	-lar>
.	.	.	.	4b-y	<E	2dd	le
8B-y	-mo-	.	.	.	.	.	.
4G	-lar>	4.g	fron-	4.b-y	tre-	.	.
4G	le	.	.	.	.	[4gg	fron-
.	.	8f	.	8b-y	-mo-	.	.
=6	=6	=6	=6	=6	=6	=6	=6
4.c	fron-	8eL	.	4g	-lar>	8gg]L	.
.	.	8dJ	.	.	.	8ff	.
.	.	4e	.	4g	le	8ee	.
8B-y	.	.	.	.	.	8ddJ	.
8AL	.	4c	-de,	4.cc	fron-	4ee	.
8GJ	.	.	.	.	.	.	.
4A	.	4c	le	.	.	4cc	-de,
.	.	.	.	8b-y	.	.	.
4F	-de,	4.f	fron-	8aL	.	4cc	le
.	.	.	.	8gJ	.	.	.
4F	<E	.	.	4a	.	4.ff	fron-
.	.	8e	.	.	.	.	.
4.B-y	tre-	8dL	.	4f	-de,	.	.
.	.	8cJ	.	.	.	8eeL	.
.	.	4d	-de	4f	le	8dd	.
8A	-mo-	.	.	.	.	8ccJ	.
=7	=7	=7	=7	=7	=7	=7	=7
8G	-lar	2g	A	4.b-y	fron-	4dd	-de
8F	le	.	.	.	.	.	.
4G	fron-	.	.	.	.	2gg	A
.	.	.	.	8a	.	.	.
2c	-de A	2e	l'au-	8gL	.	.	.
.	.	.	.	8fJ	.	.	.
.	.	.	.	4g	-de	2ee	l'au-
2A	l'au-	2c	-ra,	2cc	A	.	.
.	.	.	.	.	.	2cc	-ra,
2F	-ra,	4r	.	2a	l'au-	.	.
.	.	4f	A	.	.	[4ff	A
=8	=8	=8	=8	=8	=8	=8	=8
4r	.	2d	l'au-	2f	-ra	4ff]	.
4B-y	A	.	.	.	.	2dd	l'au-
2G	l'au-	2B-y	-ra	1g	mat-	.	.
.	.	.	.	.	.	2b-y	-ra
2E-X	-ra	4.e-X	mat-	.	.	.	.
.	.	.	.	.	.	4cc	mat-
.	.	8d	.	.	.	.	.
4F	mat-	4c	.	2f	-tu-	4a	-tu-
4BB-y	-tu-	4d	-tu-	.	.	[4b-y	-ti-
=9	=9	=9	=9	=9	=9	=9	=9
2F	-ti-	2c	-ti-	2f	-ti-	4b-]	.
.	.	.	.	.	.	4a	.
1BB-y	-na	2B-y	-na	2f	-na	2b-y	-na
.	.	4r	.	4r	.	4r	.
.	.	4B-y	e	4b-y	e	4dd	e
2r	.	4F	gli ar-	4a	gli ar-	4cc	gli ar-
.	.	4G	-bu-	[4g	-bu-	4b-y	-bu-
=10	=10	=10	=10	=10	=10	=10	=10
1r	.	2d	-scel-	4g]	.	4.a	-scel-
.	.	.	.	2f	-scel-	.	.
.	.	.	.	.	.	16gL	.
.	.	.	.	.	.	16fJ	.
.	.	4c	-li,	.	.	2g	.
.	.	2c	E	4e	.	.	.
2F	E	.	.	2f	-li,	4a	-li,
.	.	2d	so-	.	.	4a	E
2G	so-	.	.	2r	.	2bnX	so-
.	.	[4e	-vra i	.	.	.	.
=11	=11	=11	=11	=11	=11	=11	=11
2A	-vra i	4e]	ver-	4r	.	2cc	-vra i
.	.	2f	-di	4a	E	.	.
2B-y	ver-	.	.	4d	so-	2dd	ver-
.	.	2g	ra-	4dd	-vra i	.	.
2c	-di	.	.	4cc	ver-	2ee	-di
.	.	4.a	.	4cc	-di	.	.
2d	ra-	.	.	4.a	ra-	[2ff	ra-
.	.	8g	.	.	.	.	.
.	.	4f	.	.	.	.	.
.	.	.	.	8b-y	.	.	.
=12	=12	=12	=12	=12	=12	=12	=12
1c	-mi	2g	-mi i	2cc	.	4ff]	.
.	.	.	.	.	.	4ee	-mi
.	.	8eL	va-	2g	-mi i	4r	.
.	.	8d	.	.	.	.	.
.	.	8e	.	.	.	4ee	i
.	.	8fJ	.	.	.	.	.
1r	.	4g	.	4b-y	va-	4dd	va-
.	.	4f	-gh'au-	4a	-gh'au-	2ff	-gh'au-
.	.	2c	-gel-	2g	-gel-	.	.
.	.	.	.	.	.	4ee	-gel-
=13	=13	=13	=13	=13	=13	=13	=13
2F	i	2f	-li,	4a	-li,	4ff	-li,
.	.	.	.	4a	i	4cc	<i
4G	va-	2r	.	4g	va-	4b-y	va-
4A	-gh'au-	.	.	2f	-gh'au-	4a	-gh'au-
4B-y	-gel-	4r	.	.	.	2g	-gel-
4c	.	4c	Can-	4e	-gel-	.	.
4F	-li	8cL	-tar,	4f	-li	2a	-li>
.	.	8B-y	.	.	.	.	.
4F	Can-	8A	.	4a	Can-	.	.
.	.	8GJ	.	.	.	.	.
=14	=14	=14	=14	=14	=14	=14	=14
8FL	-tar,	4F	.	8aL	-tar,	2r	.
8E	.	.	.	8g	.	.	.
8D	.	4f	Can-	8f	.	.	.
8CJ	.	.	.	8eJ	.	.	.
1BB-y	.	8fL	-tar,	2d	.	2ff	Can-
.	.	8e	.	.	.	.	.
.	.	8d	.	.	.	.	.
.	.	8cJ	.	.	.	.	.
.	.	4B-y	.	4r	.	8ffL	-tar,
.	.	.	.	.	.	8ee	.
.	.	4d	<Can-	4b-y	Can-	8dd	.
.	.	.	.	.	.	8ccJ	.
2BB-y	so-	8dL	-tar,>	8b-yL	-tar	4b-y	.
.	.	8c	.	8a	.	.	.
.	.	8B-y	.	8g	.	4dd	<Can-
.	.	8AJ	.	8fJ	.	.	.
=15	=15	=15	=15	=15	=15	=15	=15
2C	-a-	4G	.	2e	.	8ccL	-tar>
.	.	.	.	.	.	8b-y	.
.	.	4c	so-	.	.	8a	.
.	.	.	.	.	.	8gJ	.
2D	-ve-	4A	-a-	2d	so-	4f	.
.	.	4B-y	-ve-	.	.	4f	so-
1C	-men-	4A	-men-	4e	-a-	4cc	-a-
.	.	8GL	.	2f	-ve-	4cc	-ve-
.	.	8FJ	.	.	.	.	.
.	.	2G	.	.	.	2cc	-men-
.	.	.	.	4e	-men-	.	.
=16	=16	=16	=16	=16	=16	=16	=16
4F	-te,	4F	-te,	1f	-te,	2a	-te,
4F	E	4c	E	.	.	.	.
8B-y	ri-	8d	ri-	.	.	4r	.
8A	-der	8c	-der	.	.	.	.
8B-y	l'O-	8d	l'O-	.	.	4b-y	E
8c	-ri-	8e	-ri-	.	.	.	.
2d	-en-	4f	-en-	4r	.	8a	ri-
.	.	.	.	.	.	8g	-der
.	.	4d	-te, E	4f	E	8a	l'O-
.	.	.	.	.	.	8b-y	-ri-
4c	-te,	8e	ri-	8g	ri-	4cc	-en-
.	.	8d	-der	8f	-der	.	.
4C	<E	8e	l'O-	8g	l'O-	4cc	-te,
.	.	8f	-ri-	8a	-ri-	.	.
=17	=17	=17	=17	=17	=17	=17	=17
8G	ri-	2g	-en-	4b-y	-en-	4r	.
8F	-der	.	.	.	.	.	.
8G	l'O-	.	.	4b-y	-te,	4g	<E
8A	-ri-	.	.	.	.	.	.
2B-y	-en-	2f	-te,	4r	.	8dd	ri-
.	.	.	.	.	.	8cc	-der
.	.	.	.	4f	E	8dd	l'O-
.	.	.	.	.	.	8ee	-ri-
2F	-te,>	4r	.	8a	ri-	2ff	-en-
.	.	.	.	8g	-der	.	.
.	.	4F	<E	8a	l'O-	.	.
.	.	.	.	8b-y	-ri-	.	.
4r	.	8A	ri-	2cc	-en-	2ff	-te,>
.	.	8G	-der	.	.	.	.
4F	E	8A	l'O-	.	.	.	.
.	.	8B-y	-ri-	.	.	.	.
=18	=18	=18	=18	=18	=18	=18	=18
8A	ri-	4c	-en-	2cc	-te,	4r	.
8G	-der	.	.	.	.	.	.
8A	l'O-	4c	-te,> <E	.	.	2cc	E
8B-y	-ri-	.	.	.	.	.	.
2c	-en-	8e	ri-	4r	.	.	.
.	.	8d	-der	.	.	.	.
.	.	8e	l'O-	4c	<E	8ee	ri-
.	.	8f	-ri-	.	.	8dd	-der
4c	-te,	4g	-en-	8e	ri-	8ee	l'O-
.	.	.	.	8d	-der	8ff	-ri-
4C	<E	4g	-te,>	8e	l'O-	2gg	-en-
.	.	.	.	8f	-ri-	.	.
8E	ri-	4r	.	2g	-en-	.	.
8D	-der	.	.	.	.	.	.
8E	l'O-	4G	E	.	.	4gg	-te,
8F	-ri-	.	.	.	.	.	.
=19	=19	=19	=19	=19	=19	=19	=19
0G	-en-	8B-y	ri-	2d	-te,>	4r	.
.	.	8A	-der	.	.	.	.
.	.	8B-y	l'O-	.	.	4g	<E
.	.	8c	-ri-	.	.	.	.
.	.	4d	-en-	4r	.	8b-y	ri-
.	.	.	.	.	.	8a	-der
.	.	4d	-te,	4b-y	<E	8b-y	l'O-
.	.	.	.	.	.	8cc	-ri-
.	.	4g	l'O-	8b-y	ri-	4dd	-en-
.	.	.	.	8a	-der	.	.
.	.	4e	-ri-	8g	l'O-	2cc	.
.	.	.	.	8f	-ri-	.	.
.	.	2d	-en-	2g	-en-	.	.
.	.	.	.	.	.	4bnXi	.
=20	=20	=20	=20	=20	=20	=20	=20
0cl	-te:>	0el	-te:	0gl	-te:>	0ccl	-te:>
=21||	=21||	=21||	=21||	=21||	=21||	=21||	=21||
!!LO:TX:a:t=Seconda parte.
2.c	Ec-	2.e	Ec-	2.g	Ec-	2.cc	Ec-
4A	-co	4e	-co	4a	-co	4cc	-co
4F	già	4f	già	4a	già	4cc	già
2B-y	l'Al-	2f	l'Al-	2b-y	l'Al-	2dd	l'Al-
4F	-b'ap-	4f	-b'ap-	[4a	-b'ap-	4cc	-b'ap-
=22	=22	=22	=22	=22	=22	=22	=22
2G	-pa-	2d	-pa-	4a]	.	2b-y	-pa-
.	.	.	.	2g	-pa-	.	.
2D	-re,	2d	-re,	.	.	2a	-re,
.	.	.	.	4f#X	-re,	.	.
4r	.	4r	.	4r	.	4r	.
2D	E	2A	E	2d	E	2f#X	E
4G	si	4B-y	si	4d	si	4g	si
=23	=23	=23	=23	=23	=23	=23	=23
2F	spec-	2c	spec-	2fnXi	spec-	2a	spec-
4C	-chia	4c	-chia	4e	-chia	4g	-chia
4D	nel	4A	nel	2d	nel	4fnXi	nel
2AA	ma-	2A	ma-	.	.	2e	ma-
.	.	.	.	4c#X	ma-	.	.
4D	-re,	4A	-re,	4d	-re,	4d	-re,
[4D	<E	[4d	<E	[4f#X	<E	[4a	<E
=24	=24	=24	=24	=24	=24	=24	=24
4D]	.	4d]	.	4f#]	.	4a]	.
4G	si	4d	si	4g	si	4b-y	si
2F	spec-	4f	spec-	2a	spec-	2cc	spec-
.	.	2F	-chia	.	.	.	.
4BB-y	-chia	.	.	4b-y	-chia	4dd	-chia
4C	nel	4c	nel	2g	nel	4ee-X	nel
2D	ma-	2A	ma-	.	.	2dd	ma-
.	.	.	.	4f#i	ma-	.	.
=25	=25	=25	=25	=25	=25	=25	=25
1G	-re,>	1G	-re,>	2g	-re,>	1bnX	-re,>
.	.	.	.	4r	.	.	.
.	.	.	.	4g	E	.	.
1r	.	1r	.	4fnXi	ras-	4r	.
.	.	.	.	4d	-se-	4dd	E
.	.	.	.	4f	-re-	4cc	ras-
.	.	.	.	4f	-na il	4a	-se-
=26	=26	=26	=26	=26	=26	=26	=26
1r	.	2r	.	8eL	cie-	4cc	-re-
.	.	.	.	8d	.	.	.
.	.	.	.	8e	.	4cc	-na il
.	.	.	.	8fJ	.	.	.
.	.	4r	.	2g	.	8b-iL	cie-
.	.	.	.	.	.	8a	.
.	.	4g	E	.	.	8b-y	.
.	.	.	.	.	.	8ccJ	.
2r	.	4f	ras-	4d	-lo,	2dd	.
.	.	4d	-se-	4dd	<E	.	.
4r	.	2f	-re-	4cc	ras-	4a	-lo,
4d	E	.	.	4a	-se-	4ff	<E
=27	=27	=27	=27	=27	=27	=27	=27
4c	ras-	4g	-na,	4cc	-re-	4ee	ras-
4A	-se-	4a	<E	4cc	-na il	4cc	-se-
4c	-re-	4g	ras-	8gL	cie-	4ee	-re-
.	.	.	.	8f	.	.	.
4c	-na il	4e	-se-	8g	.	4ee	-na il
.	.	.	.	8aJ	.	.	.
8B-yL	cie-	4g	-re-	2b-y	.	8ddL	cie-
8A	.	.	.	.	.	8cc	.
8B-y	.	4g	-na> il	.	.	8dd	.
8cJ	.	.	.	.	.	8eeJ	.
2d	.	8fL	cie-	4a	-lo,>	4.ff	.
.	.	8g	.	.	.	.	.
.	.	8a	.	4f	il	.	.
.	.	8fJ	.	.	.	8dd	.
=28	=28	=28	=28	=28	=28	=28	=28
1c	-lo,	4g	.	1cc	cie-	8eeL	.
.	.	.	.	.	.	8ccJ	.
.	.	4a	.	.	.	2ff	.
.	.	2g	.	.	.	.	.
.	.	.	.	.	.	4ee	.
4r	.	4f	-lo,	2a	-lo,	2ff	-lo,>
4d	E	4f	E	.	.	.	.
4c	le	4e	le	4r	.	2r	.
4d	cam-	4f	cam-	4a	E	.	.
=29	=29	=29	=29	=29	=29	=29	=29
4B-y	-pa-	4d	-pa-	4g	le	1r	.
4c	-gn'im-	4e	-gn'im-	4a	cam-	.	.
4.d	-per-	4.f	-per-	4b-y	-pa-	.	.
.	.	.	.	2a	-gn'im-	.	.
8c	.	8e	.	.	.	.	.
2B-y	.	2d	.	.	.	4r	.
.	.	.	.	4g	-per-	4dd	E
4A	-la,	4e	-la,	2a	-la,	4cc	le
4F	<E	4f	im-	.	.	4dd	cam-
=30	=30	=30	=30	=30	=30	=30	=30
4G	le	4d	-per-	4r	.	4b-y	-pa-
4E-X	cam-	4G	-la,	4g	<E	4cc	-gn'im-
4D	-pa-	4r	.	4f	le	4dd	-per-
4G	-gn'im-	4d	<E	4g	cam-	4b-y	-la,
4A	-per-	4c#X	le	4e	-pa-	1r	.
4D	-la,>	4d	cam-	4f	-gn'im-	.	.
2r	.	4B-y	-pa-	4g	-per-	.	.
.	.	4cnXi	-gn'im-	4a	-la,>	.	.
=31	=31	=31	=31	=31	=31	=31	=31
2d	E	8dL	-per-	1r	.	2ff	<E
.	.	8e	.	.	.	.	.
.	.	8f	.	.	.	.	.
.	.	8gJ	.	.	.	.	.
4c	le	2a	.	.	.	4ee	le
4d	cam-	.	.	.	.	4ff	cam-
4B-y	-pa-	2g	-la>	4r	.	4dd	-pa-
4c	-gn'im-	.	.	4cc	<E	4ee	-gn'im-
2d	-per-	2r	.	4a	le	[2ff	-per-
.	.	.	.	4b-y	cam-	.	.
=32	=32	=32	=32	=32	=32	=32	=32
2c	-la e'l	4r	.	4g	-pa-	4ff]	.
.	.	4e	e'l	4a	-gn'im-	4ee	-la> e'l
2.B-y	dol-	2f	dol-	4b-y	-per-	2.dd	dol-
.	.	.	.	4B-y	-la> e'l	.	.
.	.	2f	-ce	4d	dol-	.	.
4A	-ce	.	.	2f	-ce	4cc	-ce
2G	ge-	2g	ge-	.	.	2b-y	ge-
.	.	.	.	4e	ge-	.	.
=33	=33	=33	=33	=33	=33	=33	=33
2F	-lo,	2c	-lo,	4.f	.	2a	-lo,
.	.	.	.	8g	.	.	.
4r	.	4r	.	2a	-lo,	4r	.
4F	E	4f	E	.	.	4cc	E
4f	gli al-	4a	gli al-	4r	.	4dd	gli al-
4e	-ti	4g	-ti	4g	E	4ee	-ti
2d	mon-	2f	mon-	4a	gli al-	[2ff	mon-
.	.	.	.	4bnX	-ti	.	.
=34	=34	=34	=34	=34	=34	=34	=34
*lig	*	*	*	*	*	*	*
1c	-ti in-	1g	-ti in-	1cc	mon-	4ff]	.
.	.	.	.	.	.	8eeL	.
.	.	.	.	.	.	8ddJ	.
.	.	.	.	.	.	2ee	.
1F	.	2.f	-do-	1a	-ti in-	2dd	-ti in-
*Xlig	*	*	*	*	*	*	*
.	.	.	.	.	.	[2cc	-do-
.	.	4e	.	.	.	.	.
=35	=35	=35	=35	=35	=35	=35	=35
1G	-do-	1d	.	1g	-do-	4cc]	.
.	.	.	.	.	.	8bnXiL	.
.	.	.	.	.	.	8aJ	.
.	.	.	.	.	.	2bni	.
2c	-ra.	2e	-ra.	2g	-ra.	2cc	-ra.
2r	.	2r	.	2r	.	2r	.
=36	=36	=36	=36	=36	=36	=36	=36
2F	O	2f	O	2a	O	2cc	O
2B-y	bel-	2f	bel-	2b-y	bel-	2dd	bel-
4G	-la e	4g	-la e	4b-y	-la e	4dd	-la e
2A	va-	2e	va-	2a	va-	2cc	va-
4F	-ga Au-	[4f	-ga Au-	4a	-ga Au-	4cc	-ga Au-
=37	=37	=37	=37	=37	=37	=37	=37
2c	-ro-	4f]	.	2g	-ro-	2cc	-ro-
.	.	4e	-ro-	.	.	.	.
2F	-ra,	2f	-ra,	2a	-ra,	2cc	-ra,
2r	.	2r	.	2r	.	2r	.
2F	<O	2a	<O	2cc	<O	2ff	O
=38	=38	=38	=38	=38	=38	=38	=38
2c	bel-	2g	bel-	2.cc	bel-	2ee	bel-
4A	-la e	4a	-la e	.	.	4ee	-la e
2B-y	va-	2f	va-	4b-y	-la e	2dd	va-
.	.	.	.	2.b-y	va-	.	.
4G	-ga Au-	4g	-ga Au-	.	.	4dd	-ga Au-
4.d	-ro-	4.f	-ro-	.	.	[2dd	-ro-
.	.	.	.	[4a	-ga Au-	.	.
8c	.	8e	.	.	.	.	.
=39	=39	=39	=39	=39	=39	=39	=39
2B-y	.	4.d	.	4a]	.	2dd]	.
.	.	.	.	4g	-ro-	.	.
.	.	8e	.	.	.	.	.
2A	-ra,>	4f	.	2a	-ra.>	2cc#X	-ra,
.	.	4e	-ra,>	.	.	.	.
1r	.	4r	.	4r	.	4r	.
.	.	2d	L'au-	2f#X	L'au-	2a	L'au-
.	.	4G	-ra è	4g	-ra è	4b-y	-ra è
=40	=40	=40	=40	=40	=40	=40	=40
0r	.	2A	tua	4e	tua	2ccnXi	tua
.	.	.	.	4.fnXi	mes-	.	.
.	.	8B-yL	mes-	.	.	2dd	mes-
.	.	8c	.	8eL	.	.	.
.	.	8d	.	8f	.	.	.
.	.	8eJ	.	8gJ	.	.	.
.	.	4f	.	4a	.	2cc	-sag-
.	.	4e-X	-sag-	2g	-sag-	.	.
.	.	2d	-gie-	.	.	8b-yL	-gie-
.	.	.	.	.	.	8a	.
.	.	.	.	[4f	-gie-	8g	.
.	.	.	.	.	.	8fJ	.
=41	=41	=41	=41	=41	=41	=41	=41
2r	.	2c	-ra,	4f]	.	2g	.
.	.	.	.	4e	.	.	.
4r	.	4r	.	4f	-ra,	4a	-ra,
2A	L'au-	2c	<L'au-	2e	<L'au-	2a	<L'au-
4G	-ra è	4d	-ra è	4g	-ra è	4b-y	-ra è
8FL	tua	2f	tua	2a	tua	[2cc	tua
8G	.	.	.	.	.	.	.
8A	.	.	.	.	.	.	.
8B-yJ	.	.	.	.	.	.	.
=42	=42	=42	=42	=42	=42	=42	=42
2c	.	2e	mes-	8gL	mes-	2cc]	.
.	.	.	.	8f	.	.	.
.	.	.	.	8g	.	.	.
.	.	.	.	8aJ	.	.	.
4B-y	mes-	4f	-sag-	2b-y	.	4dd	mes-
4B-y	-sag-	4.g	-gie-	.	.	4dd	-sag-
1c	-gie-	.	.	2a	-sag-	1cc	-gie-
.	.	8f	.	.	.	.	.
.	.	2f	.	.	.	.	.
.	.	.	.	2g	-gie-	.	.
.	.	4e	.	.	.	.	.
=43	=43	=43	=43	=43	=43	=43	=43
2F	-ra,	4f	-ra,>	1a	-ra,>	1cc	-ra,>
.	.	4c	e	.	.	.	.
4r	.	2f	tu,	.	.	.	.
4F	e	.	.	.	.	.	.
2B-y	tu	4r	.	1r	.	1r	.
.	.	4d	e	.	.	.	.
4A	de	2f	tu	.	.	.	.
[4d	l'au-	.	.	.	.	.	.
=44	=44	=44	=44	=44	=44	=44	=44
8d]L	.	2e	de	1r	.	1r	.
8cJ	.	.	.	.	.	.	.
2c	.	.	.	.	.	.	.
.	.	2d	l'au-	.	.	.	.
4BnXi	.	.	.	.	.	.	.
2c	-ra,	2e	-ra,	2r	.	4r	.
.	.	.	.	.	.	4g	e
4r	.	4r	.	4r	.	[2cc	tu
4C	e	4e	<e	4g	e	.	.
=45	=45	=45	=45	=45	=45	=45	=45
2F	tu	2f	tu	2a	tu	2cc]	.
2G	de	1d	de	2g	de	2b-y	de
1A	l'au-	.	.	1e	l'au-	1a	l'au-
.	.	2c#X	l'au-	.	.	.	.
=46	=46	=46	=46	=46	=46	=46	=46
4D	-ra	2d	-ra>	4f	-ra	4a	-ra
4d	Ch'o-	.	.	4a	Ch'o-	4ff	Ch'o-
4d	-gn'ar-	4r	.	4a	-gn'ar-	4ff	-gn'ar-
4d	-so	4f	Ch'o-	4bnX	-so	4ff	-so
2c	cor	4g	-gn'ar-	2cc	cor	2ee	cor
.	.	4g	-so	.	.	.	.
2F	ri-	8aL	cor	2a	ri-	4cc	ri-
.	.	8g	.	.	.	.	.
.	.	8f	.	.	.	[4dd	-stau-
.	.	8eJ	.	.	.	.	.
=47	=47	=47	=47	=47	=47	=47	=47
1G	-stau-	4d	.	1g	-stau-	8dd]L	.
.	.	.	.	.	.	8ccJ	.
.	.	4e	ri-	.	.	2cc	.
.	.	2d	-stau-	.	.	.	.
.	.	.	.	.	.	4bnXi	.
2A	-ra,	2c	-ra,	4e	-ra,	4cc	-ra,
.	.	.	.	4cc	<Ch'o-	4ee	Ch'o-
2A	ri-	2c	ri-	4cc	-gn'ar-	4ee	-gn'ar-
.	.	.	.	4cc	-so	4ff#X	-so
=48	=48	=48	=48	=48	=48	=48	=48
0G	-stau-	2d	-stau-	2b-y	cor	2.gg	cor
.	.	2.c	.	2g	ri-	.	.
.	.	.	.	.	.	4ee	ri-
.	.	.	.	1g	-stau-	1dd	-stau-
.	.	8BnXiL	.	.	.	.	.
.	.	8AJ	.	.	.	.	.
.	.	2Bni	.	.	.	.	.
=49	=49	=49	=49	=49	=49	=49	=49
0Cl	-ra.	0cl	-ra.	0gl	-ra.	0eel	-ra.
==	==	==	==	==	==	==	==
*-	*-	*-	*-	*-	*-	*-	*-
!!!system-decoration: [*]
!!!RDF**kern: i = editorial accidental
!!!RDF**kern: l = terminal long
!!!ENC: Emiliano Ricciardi
!!!END: 2018
!!!EED: Ricciardi, Emiliano
!!!EEV: 2018/10/28
!!!YEC: Copyright 2018 Emiliano Ricciardi, All Rights Reserved
!!!ONB: Translated from MusicXML on 2018/10/28 and edited by Craig Stuart Sapp
!!@@BEGIN:	VERSEDATA
!!@SOLERTI:	143
!!@CATALOGNUM:	Trm0143
!!@LAST_MODIFIED: 2020/07/12
!!@TITLE:		Ecco mormorar l'onde
!!@GENRE:		madrigale
!!@MANUSRC:	C, Ts<sub>2</sub>, V<sub>8</sub>, V<sub>13/TS2</sub>
!!@PRINTSRC:	22, 26, 31, 35, 48, 69, 85, 87, 141, 166, 169
!!@@BEGIN:	VERSES
!!@ABOUTIT:	Descrive l'apparir de l'aurora e de la sua donna.
!!@ABOUTEN:	He describes the appearance of dawn and of his lady.
!!@EDITOR:	Solerti, Angelo
!!@EDITION_TITLE: Le Rime di Torquato Tasso
!!@EDITION_LOC:	Bologna
!!@EDITION_PUB:	Romagnoli-Dall’Acqua
!!@EDITION_DATE:  1898-1902
!!@EDITION_VOL:	2
!!@EDITION_PAGE:  224-25
!!@TRANSLATOR:	Emiliano Ricciardi and Amyrose McCue Gill
!!@VERSE:
!!	Ecco mormorar l'onde,
!!	E tremolar le fronde
!!	A l'aura mattutina e gli arboscelli,
!!	E sovra i verdi rami i vaghi augelli
!!	Cantar soavemente,
!!	E rider l'orïente:
!!	Ecco già l'alba appare,
!!	E si specchia nel mare,
!!	E rasserena il cielo,
!!	E le campagne imperla il dolce gelo,
!!	E gli alti monti indora.
!!	O bella, e vaga Aurora,
!!	L'aura è tua Messaggiera, e tu de l'aura
!!	Ch'ogn'arso cor ristaura.
!!@TVERSE:
!!	Here are the murmuring waves
!!	And the trembling fronds
!!	In the morning breeze and the young trees
!!	And over the green boughs the lovely birds
!!	Singing pleasantly
!!	And the Orient is smiling:
!!	Here the dawn already appears
!!	And is mirrored in the sea
!!	And once more brightens the sky
!!	And the gentle frost leaves pearls among the fields
!!	And gilds the high mountains.
!!	O beautiful and lovely Dawn,
!!	The breeze is your messenger, and you of the breeze
!!	That each burning heart revives.
!!@@END:		VERSES
!!@OTHER_CRIT_ED:   Torquato Tasso, <i>Rime d’amore (secondo il codice
!!		Chigiano L VIII 302)</i>, eds. Franco Gavazzeni and
!!		Vercingetorige Martignone, vol. 4 of <i>Edizione
!!		Nazionale delle opere di Torquato Tasso</i>
!!		(Alessandria: Edizioni Dell’Orso, 2004), 114.
!!@ATTRIBUTION_ABOUT:	Secure
!!		<br>
!!		Among other authoritative sources (see Literary Sources), this poem appears in the autograph Chigiano
!!		L.VIII.302 (Biblioteca Vaticana, Rome), compiled
!!		around 1584&ndash;85.
!!@DATING:
!!@DEDICATEE:	Peperara, Laura ?
!!@COMMENTARY:
!!@@END:		VERSEDATA
!!@@BEGIN:	SETTING
!!@CATALOGNUM:	Trm0143a
!!@RIMETITLE:	Ecco mormorar l'onde
!!@SOLERTI:	143
!!@COMPOSER:	Dueto, Antonio
!!@PRINCEPSTITLE:	Il secondo libro de madrigali a quattro voci
!!@PRINCEPSLOC:	Venetia
!!@NORMLOC:	Venice
!!@NORMPUB:	Angelo Gardano
!!@NORMPUBSHORT:	Gardano
!!@PRINCEPSPUB:	Gardano
!!@PRINCEPSYEAR:	1586
!!@PRINCEPSRISM:	D 3655
!!@REPRINTS:	A1597-04a
!!@OVOICES:	4
!!@EXTANTVOICES:	4
!!@PARTBOOKS:	
!!@EXTPARTBOOKS:	
!!@OCLEFS:	G2,C2,C3,F3
!!@OMENSURATION:	C
!!@OKEYSIG:	b-
!!@FINAL:	C
!!@TIMPEDITOR:	Ricciardi, Emiliano
!!@NOTE:		
!!@@END:		SETTING
